public/images/delete-site/start-over.svg

<?xml version="1.0" encoding="UTF-8" standalone="no"?>
<svg width="170px" height="143px" viewBox="0 0 170 143" version="1.1" xmlns="http://www.w3.org/2000/svg" xmlns:xlink="http://www.w3.org/1999/xlink" xmlns:sketch="http://www.bohemiancoding.com/sketch/ns">
    <!-- Generator: Sketch 3.4.3 (16044) - http://www.bohemiancoding.com/sketch -->
    <title>figure copy</title>
    <desc>Created with Sketch.</desc>
    <defs></defs>
    <g id="web" stroke="none" stroke-width="1" fill="none" fill-rule="evenodd" sketch:type="MSPage">
        <g id="start-over----cake" sketch:type="MSArtboardGroup" transform="translate(-794.000000, -205.000000)">
            <g id="start-over" sketch:type="MSLayerGroup" transform="translate(355.000000, 156.000000)">
                <g id="figure-copy" transform="translate(439.000000, 49.000000)" sketch:type="MSShapeGroup">
                    <path d="M140.857143,65.440678 C140.857143,96.6213277 115.433425,121.99435 84.1904762,121.99435 C52.9475275,121.99435 27.5238095,96.6213277 27.5238095,65.440678 C27.5238095,34.2600282 52.9475275,8.88700565 84.1904762,8.88700565 C115.433425,8.88700565 140.857143,34.2600282 140.857143,65.440678 L140.857143,65.440678 Z M61.9291941,111.201299 L37.6431685,44.7376836 C34.7967582,51.0499435 33.21663,58.0560734 33.21663,65.440678 C33.21663,85.5759605 44.9793223,102.931412 61.9291941,111.201299 L61.9291941,111.201299 Z M114.674963,79.3267797 C116.887143,72.2575706 118.595861,67.2068927 118.595861,62.8522599 C118.595861,56.6030791 116.318297,52.2484463 114.358938,48.84 C111.828553,44.6746045 109.361374,41.14 109.361374,36.9115254 C109.361374,32.2414972 112.90304,27.8846893 117.900604,27.8846893 L118.595861,27.9477684 C109.550989,19.6800565 97.4722711,14.5684746 84.1904762,14.5684746 C66.4189377,14.5684746 50.735348,23.7192938 41.6272711,37.4792373 L44.9161172,37.5423164 C50.2275275,37.5423164 58.4507326,36.9115254 58.4507326,36.9115254 C61.2339377,36.7853672 61.5499634,40.7615254 58.8299634,41.14 C58.8299634,41.14 56.0467582,41.4553955 52.9475275,41.5815537 L71.5407326,96.6844068 L82.6735531,63.2938136 L74.7663736,41.5815537 C71.985348,41.4553955 69.3917582,41.14 69.3917582,41.14 C66.6717582,40.9507627 66.9877839,36.7853672 69.7077839,36.9115254 C69.7077839,36.9115254 78.1184249,37.5423164 83.115989,37.5423164 C88.4906044,37.5423164 96.7138095,36.9115254 96.7138095,36.9115254 C99.43163,36.7853672 99.8108608,40.7615254 97.0298352,41.14 C97.0298352,41.14 94.3098352,41.4553955 91.2106044,41.5815537 L109.614194,96.2428531 L114.674963,79.3267797 L114.674963,79.3267797 Z M101.077143,113.411243 C100.950733,113.156751 100.824322,112.967514 100.761117,112.715198 L85.075348,69.8583898 L69.770989,114.231271 C74.3871429,115.555932 79.1950916,116.249802 84.1904762,116.249802 C90.1361172,116.249802 95.8267582,115.240537 101.077143,113.411243 L101.077143,113.411243 Z M129.220861,46.2537571 C129.220861,51.4284181 128.270604,57.2360452 125.363168,64.4944915 L109.80381,109.369831 C124.918553,100.597486 135.101117,84.1860452 135.101117,65.440678 C135.101117,56.6030791 132.888938,48.2722881 128.904835,41.0138418 C129.094451,42.6560734 129.220861,44.4222881 129.220861,46.2537571 L129.220861,46.2537571 Z" id="WordPress-Logo" fill="#A8BECE"></path>
                    <path d="M84.5952381,143 C118.350356,143 145.714286,140.287149 145.714286,136.940678 C145.714286,133.594207 118.350356,130.881356 84.5952381,130.881356 C50.8401202,130.881356 23.4761905,133.594207 23.4761905,136.940678 C23.4761905,140.287149 50.8401202,143 84.5952381,143 L84.5952381,143 Z" id="shadow" fill-opacity="0.370000005" fill="#D5E5EB"></path>
                    <g id="stars" fill="#D5E5EB">
                        <path d="M7.58817575,19.2894616 C7.97537317,18.4844087 7.97803375,17.1846921 7.58817575,16.3741074 L4.1331988,9.19059146 C3.74600138,8.38553864 4.08050115,8.04351875 4.89270537,8.43259939 L12.0905739,11.8806871 C12.8972353,12.2671124 14.1995488,12.2697677 15.011753,11.8806871 L22.2096216,8.43259939 C23.0162829,8.04617403 23.3589861,8.3800068 22.9691281,9.19059146 L19.5141512,16.3741074 C19.1269538,17.1791602 19.1242932,18.4788769 19.5141512,19.2894616 L22.9691281,26.4729774 C23.3563256,27.2780303 23.0218258,27.6200502 22.2096216,27.2309695 L15.011753,23.7828819 C14.2050917,23.3964565 12.9027782,23.3938013 12.0905739,23.7828819 L4.89270537,27.2309695 C4.08604404,27.6173949 3.7433408,27.2835621 4.1331988,26.4729774 L7.58817575,19.2894616 L7.58817575,19.2894616 Z" id="Rectangle-66" transform="translate(13.551163, 17.831784) rotate(-45.000000) translate(-13.551163, -17.831784) "></path>
                        <path d="M156.340878,63.6603374 C156.533983,63.2588382 156.535351,62.610724 156.340878,62.2063801 L155.291601,60.0247442 C155.098497,59.6232449 155.265233,59.4526301 155.670385,59.6467153 L157.85638,60.6939005 C158.258682,60.8866201 158.908091,60.8879856 159.313243,60.6939005 L161.499237,59.6467153 C161.901539,59.4539956 162.072494,59.6204001 161.878021,60.0247442 L160.828744,62.2063801 C160.635639,62.6078793 160.634271,63.2559933 160.828744,63.6603374 L161.878021,65.8419733 C162.071126,66.2434725 161.904389,66.4140873 161.499237,66.2200022 L159.313243,65.172817 C158.910941,64.9800973 158.261532,64.9787318 157.85638,65.172817 L155.670385,66.2200022 C155.268084,66.4127218 155.097128,66.2463172 155.291601,65.8419733 L156.340878,63.6603374 L156.340878,63.6603374 Z" id="Rectangle-66" transform="translate(158.584811, 62.933359) rotate(-45.000000) translate(-158.584811, -62.933359) "></path>
                        <path d="M150.797624,6.46572012 L149.826195,4.44594611 L151.850004,5.41543763 L153.873814,4.44594611 L152.902385,6.46572012 L153.873814,8.48549413 L151.850004,7.51600261 L149.826195,8.48549413 L150.797624,6.46572012 L150.797624,6.46572012 Z" id="Rectangle-66" transform="translate(151.850004, 6.465720) rotate(-90.000000) translate(-151.850004, -6.465720) "></path>
                        <path d="M166.350987,35.9544207 L165.379558,33.9346467 L167.403368,34.9041382 L169.427177,33.9346467 L168.455749,35.9544207 L169.427177,37.9741947 L167.403368,37.0047032 L165.379558,37.9741947 L166.350987,35.9544207 L166.350987,35.9544207 Z" id="Rectangle-66" transform="translate(167.403368, 35.954421) rotate(-90.000000) translate(-167.403368, -35.954421) "></path>
                        <path d="M118.506161,5.04573742 C118.701066,4.64049618 118.705369,3.99241752 118.506161,3.57822917 L117.07483,0.602234594 C116.879925,0.196993357 117.042128,0.0218720026 117.457144,0.220682398 L120.439085,1.64915981 C120.845136,1.8436756 121.494509,1.84797021 121.909525,1.64915981 L124.891466,0.220682398 C125.297517,0.0261666077 125.472988,0.188046243 125.27378,0.602234594 L123.842449,3.57822917 C123.647544,3.9834704 123.643241,4.63154907 123.842449,5.04573742 L125.27378,8.02173199 C125.468685,8.42697323 125.306482,8.6020945 124.891466,8.40328411 L121.909525,6.97480669 C121.503474,6.7802909 120.854101,6.7759963 120.439085,6.97480669 L117.457144,8.40328411 C117.051093,8.5977999 116.875622,8.43592034 117.07483,8.02173199 L118.506161,5.04573742 L118.506161,5.04573742 Z" id="Rectangle-66" transform="translate(121.174305, 4.311983) rotate(-90.000000) translate(-121.174305, -4.311983) "></path>
                        <path d="M38.2824437,9.21924829 C38.4773481,8.81400705 38.4816514,8.16592839 38.2824437,7.75174004 L36.8511121,4.77574547 C36.6562078,4.37050423 36.8184108,4.19538287 37.2334267,4.39419327 L40.2153673,5.82267068 C40.6214182,6.01718647 41.2707917,6.02148108 41.6858076,5.82267068 L44.6677483,4.39419327 C45.0737992,4.19967748 45.2492704,4.36155712 45.0500627,4.77574547 L43.6187312,7.75174004 C43.4238268,8.15698127 43.4195236,8.80505994 43.6187312,9.21924829 L45.0500627,12.1952429 C45.2449671,12.6004841 45.0827642,12.7756054 44.6677483,12.576795 L41.6858076,11.1483176 C41.2797567,10.9538018 40.6303832,10.9495072 40.2153673,11.1483176 L37.2334267,12.576795 C36.8273758,12.7713108 36.6519045,12.6094312 36.8511121,12.1952429 L38.2824437,9.21924829 L38.2824437,9.21924829 Z" id="Rectangle-66-Copy" transform="translate(40.950587, 8.485494) rotate(-90.000000) translate(-40.950587, -8.485494) "></path>
                        <path d="M151.629881,28.6883368 C151.822986,28.2868375 151.824354,27.6387234 151.629881,27.2343794 L150.580604,25.0527436 C150.387499,24.6512443 150.554236,24.4806295 150.959388,24.6747147 L153.145383,25.7218999 C153.547684,25.9146195 154.197093,25.915985 154.602245,25.7218999 L156.78824,24.6747147 C157.190541,24.481995 157.361497,24.6483995 157.167024,25.0527436 L156.117747,27.2343794 C155.924642,27.6358787 155.923274,28.2839927 156.117747,28.6883368 L157.167024,30.8699727 C157.360129,31.2714719 157.193392,31.4420867 156.78824,31.2480016 L154.602245,30.2008164 C154.199944,30.0080967 153.550535,30.0067312 153.145383,30.2008164 L150.959388,31.2480016 C150.557087,31.4407212 150.386131,31.2743166 150.580604,30.8699727 L151.629881,28.6883368 L151.629881,28.6883368 Z" id="Rectangle-66" transform="translate(153.873814, 27.961358) rotate(-45.000000) translate(-153.873814, -27.961358) "></path>
                        <path d="M6.53629328,54.1374892 C6.72939797,53.7359899 6.73076619,53.0878758 6.53629328,52.6835318 L5.48701578,50.5018959 C5.29391109,50.1003967 5.46064808,49.9297819 5.86579998,50.123867 L8.05179479,51.1710522 C8.45409622,51.3637719 9.10350523,51.3651373 9.50865713,51.1710522 L11.6946519,50.123867 C12.0969534,49.9311474 12.267909,50.0975519 12.0734361,50.5018959 L11.0241586,52.6835318 C10.8310539,53.085031 10.8296857,53.7331451 11.0241586,54.1374892 L12.0734361,56.319125 C12.2665408,56.7206243 12.0998039,56.891239 11.6946519,56.6971539 L9.50865713,55.6499687 C9.10635571,55.4572491 8.45694669,55.4558836 8.05179479,55.6499687 L5.86579998,56.6971539 C5.46349856,56.8898736 5.29254286,56.723469 5.48701578,56.319125 L6.53629328,54.1374892 L6.53629328,54.1374892 Z" id="Rectangle-66" transform="translate(8.780226, 53.410510) rotate(-45.000000) translate(-8.780226, -53.410510) "></path>
                    </g>
                </g>
            </g>
        </g>
    </g>
</svg>

<svg width="170" height="143" viewBox="0 0 170 143" xmlns="http://www.w3.org/2000/svg"><title>figure copy</title><g fill="none" fill-rule="evenodd"><path d="M140.857 65.44c0 31.18-25.424 56.554-56.667 56.554-31.242 0-56.666-25.373-56.666-56.553 0-31.18 25.424-56.553 56.666-56.553 31.243 0 56.667 25.373 56.667 56.554zM61.93 111.2L37.642 44.74c-2.846 6.312-4.426 13.318-4.426 20.703 0 20.136 11.762 37.49 28.712 45.76zm52.745-31.873c2.212-7.07 3.92-12.12 3.92-16.475 0-6.25-2.277-10.604-4.236-14.012-2.53-4.165-5-7.7-5-11.928 0-4.67 3.543-9.027 8.54-9.027l.696.063c-9.045-8.268-21.124-13.38-34.406-13.38-17.77 0-33.455 9.15-42.563 22.91l3.29.064c5.31 0 13.534-.63 13.534-.63 2.784-.127 3.1 3.85.38 4.228 0 0-2.783.315-5.882.442L71.54 96.684l11.134-33.39-7.908-21.712c-2.78-.127-5.374-.442-5.374-.442-2.72-.19-2.404-4.355.316-4.228 0 0 8.41.63 13.408.63 5.375 0 13.598-.63 13.598-.63 2.718-.127 3.097 3.85.316 4.228 0 0-2.72.315-5.82.442l18.404 54.66 5.06-16.915zm-13.598 34.084c-.126-.253-.253-.442-.316-.695L85.076 69.858 69.77 114.23a52.04 52.04 0 0 0 14.42 2.02c5.946 0 11.637-1.01 16.887-2.84zm28.144-67.156c0 5.174-.95 10.982-3.857 18.24l-15.56 44.876c15.116-8.773 25.298-25.184 25.298-43.93 0-8.837-2.21-17.168-6.195-24.426.19 1.642.316 3.408.316 5.24z" fill="#A8BECE"/><path d="M84.595 143c33.755 0 61.12-2.713 61.12-6.06 0-3.346-27.365-6.06-61.12-6.06-33.755 0-61.12 2.714-61.12 6.06 0 3.347 27.365 6.06 61.12 6.06z" fill-opacity=".37" fill="#D5E5EB"/><g fill="#D5E5EB"><path d="M10.365 23.08c-.295-.844-1.212-1.765-2.06-2.062L.78 18.38c-.842-.294-.847-.773.002-1.072l7.528-2.65c.844-.3 1.767-1.218 2.066-2.067l2.65-7.527c.3-.844.777-.85 1.074 0l2.637 7.522c.295.843 1.213 1.764 2.06 2.06l7.524 2.638c.844.295.85.773 0 1.073l-7.528 2.65c-.844.298-1.766 1.217-2.066 2.067l-2.65 7.527c-.298.844-.777.85-1.074.002l-2.637-7.523zM157.512 65.034c-.147-.42-.605-.88-1.028-1.028l-2.285-.8c-.42-.148-.424-.387 0-.536l2.286-.805c.42-.148.88-.607 1.03-1.03l.806-2.286c.148-.422.386-.425.535-.002l.8 2.285c.148.42.605.88 1.03 1.028l2.283.8c.42.15.423.387 0 .537l-2.287.805c-.42.148-.88.606-1.03 1.03l-.805 2.286c-.148.42-.387.424-.535 0l-.8-2.284zM151.85 7.518l-2.02.972.97-2.024-.97-2.024 2.02.97 2.02-.97-.97 2.024.97 2.024-2.02-.972zM167.403 37.007l-2.02.97.97-2.023-.97-2.023 2.02.972 2.02-.97-.97 2.022.97 2.024-2.02-.97zM121.908 6.98c-.405-.195-1.053-.2-1.467 0l-2.975 1.43c-.406.196-.58.034-.382-.38l1.428-2.983c.196-.406.2-1.055 0-1.47L117.084.595c-.195-.406-.033-.582.382-.382l2.976 1.43c.406.196 1.054.2 1.468 0l2.976-1.43c.405-.195.58-.033.382.382l-1.43 2.982c-.193.406-.198 1.055 0 1.47l1.43 2.982c.194.405.032.58-.382.38l-2.976-1.43zM41.684 11.154c-.405-.195-1.053-.2-1.467 0l-2.976 1.43c-.404.196-.58.034-.38-.38l1.428-2.983c.194-.405.2-1.055 0-1.47l-1.43-2.982c-.193-.406-.03-.58.383-.382l2.977 1.43c.405.196 1.053.2 1.467 0l2.976-1.43c.406-.195.58-.033.382.382l-1.43 2.982c-.193.406-.197 1.056 0 1.47l1.43 2.983c.194.406.033.58-.382.382l-2.976-1.43zM152.8 30.062c-.146-.42-.604-.88-1.027-1.028l-2.285-.8c-.42-.148-.423-.387 0-.536l2.287-.805c.42-.148.88-.607 1.03-1.03l.806-2.286c.15-.42.387-.424.536 0l.8 2.284c.148.42.605.88 1.03 1.03l2.283.8c.42.147.422.385 0 .535l-2.288.805c-.42.148-.88.606-1.03 1.03l-.805 2.286c-.148.42-.387.424-.535 0l-.8-2.284zM7.708 55.51c-.148-.42-.605-.878-1.03-1.027l-2.283-.8c-.42-.148-.423-.386 0-.536l2.287-.805c.42-.148.88-.606 1.03-1.03l.805-2.286c.148-.42.387-.424.535 0l.8 2.284c.148.42.606.88 1.03 1.028l2.284.8c.42.148.423.386 0 .536l-2.287.805c-.422.147-.882.605-1.03 1.03l-.807 2.285c-.148.42-.386.424-.535 0l-.8-2.284z"/></g></g></svg>
